src/assets/light/HeaderLogo.svg

<svg width="165" height="31" viewBox="0 0 165 31" fill="none" xmlns="http://www.w3.org/2000/svg">
<path fill-rule="evenodd" clip-rule="evenodd" d="M58.1988 12.1048L58.2477 12.1808L59.4823 11.5507L59.4215 11.4575C57.9783 9.24904 55.4238 7.90234 51.8444 7.90234C49.0055 7.90234 46.7345 8.69377 45.1721 10.1061C43.6086 11.5194 42.7651 13.5451 42.7651 15.9911C42.7651 18.4371 43.6086 20.4628 45.1666 21.8761C46.7235 23.2884 48.9837 24.08 51.8012 24.08C55.4235 24.08 57.9782 22.7335 59.4215 20.5248L59.4823 20.4316L58.2471 19.8012L58.1983 19.8781C56.9509 21.8438 54.7506 22.8248 51.8228 22.8248C49.4812 22.8248 47.5531 22.2153 46.2119 21.0618C44.8728 19.9099 44.1074 18.206 44.1074 15.9911C44.1074 13.7763 44.8731 12.0724 46.2123 10.9206C47.5537 9.76696 49.4818 9.15753 51.8228 9.15753C54.75 9.15753 56.9305 10.1389 58.1988 12.1048Z" fill="#432D89"/>
<path fill-rule="evenodd" clip-rule="evenodd" d="M77.4126 22.3725H64.3412V16.4786H75.3661V15.2237H64.3401V9.58819H77.1953V8.35555H63.0215V23.6287H77.4126V22.3725Z" fill="#432D89"/>
<path fill-rule="evenodd" clip-rule="evenodd" d="M94.4807 22.3716L82.5729 22.3725V8.3546H81.2532V23.6277H94.4807V22.3716Z" fill="#432D89"/>
<path fill-rule="evenodd" clip-rule="evenodd" d="M111.919 22.3725H98.8488V16.4786H109.874V15.2237H98.8488V9.58819H111.704V8.35555H97.5291V23.6287H111.919V22.3725Z" fill="#432D89"/>
<path fill-rule="evenodd" clip-rule="evenodd" d="M117.13 15.3218C118.58 15.9339 120.515 16.2309 122.464 16.4137C124.63 16.6183 126.328 16.8652 127.484 17.317C128.061 17.5424 128.495 17.8159 128.784 18.1536C129.071 18.4889 129.221 18.8934 129.221 19.3933C129.221 20.372 128.672 21.2255 127.6 21.8394C126.525 22.4548 124.929 22.8248 122.861 22.8248C119.671 22.8248 116.968 21.9045 115.141 19.8862L115.071 19.8093L114.109 20.746L114.175 20.8175C116.158 22.9758 119.311 24.08 122.818 24.08C125.296 24.08 127.228 23.5717 128.544 22.7235C129.862 21.8737 130.563 20.6815 130.563 19.3288C130.563 18.6038 130.363 17.9997 129.988 17.4975C129.614 16.9967 129.07 16.6034 128.391 16.2906C127.037 15.6663 125.121 15.3532 122.87 15.1593C120.986 14.987 119.269 14.7616 118.026 14.3222C116.779 13.8817 116.049 13.2432 116.049 12.2658C116.049 11.2188 116.867 10.4365 118.085 9.91379C119.3 9.3931 120.879 9.14681 122.322 9.15753C124.978 9.179 127.228 9.86411 128.71 11.4514L128.774 11.5203L129.814 10.6583L129.737 10.5807C128.142 8.96445 125.574 7.90234 122.28 7.90234C120.331 7.90234 118.44 8.28648 117.033 9.02267C115.627 9.75877 114.687 10.8577 114.687 12.2874C114.687 13.7671 115.678 14.709 117.13 15.3218Z" fill="#432D89"/>
<path fill-rule="evenodd" clip-rule="evenodd" d="M147.675 9.56661L147.676 8.3546H131.65V9.56661H138.992V23.6277H140.311V9.56661H147.675Z" fill="#432D89"/>
<path fill-rule="evenodd" clip-rule="evenodd" d="M165 22.3725H152.03V16.4786H163.054V15.2237H152.03V9.58819H164.784V8.97187V8.35555H150.71V23.6287H165V22.3725Z" fill="#432D89"/>
<path d="M16.2983 19.3518C26.6482 19.3518 32.1174 16.6424 32.5433 16.4211C32.5573 16.4127 32.5629 16.3986 32.5685 16.3846C32.5853 16.0932 32.5965 15.7991 32.5965 15.5021C32.5965 15.2051 32.5853 14.9109 32.5685 14.6195C32.5657 14.6055 32.5601 14.5887 32.5433 14.5831C32.1174 14.3617 26.6482 11.6523 16.2983 11.6523C5.94829 11.6523 0.479114 14.3589 0.0532348 14.5803C0.0392257 14.5887 0.033622 14.6027 0.0280183 14.6167C0.0112073 14.9109 0 15.2023 0 15.4993C0 15.7963 0.0112073 16.0904 0.0280183 16.3818C0.0308202 16.3958 0.0364238 16.4127 0.0532348 16.4183C0.479114 16.6396 5.94829 19.3518 16.2983 19.3518Z" fill="url(#paint0_radial)"/>
<path d="M16.2983 5.18359C9.78406 5.18359 5.20866 6.2567 2.60576 7.10565C1.51865 8.7027 0.731333 10.5015 0.322266 12.4319C0.333473 12.4403 0.350284 12.4431 0.364293 12.4375C1.69516 11.8211 7.04106 9.65532 16.2983 9.65532C25.5556 9.65532 30.9015 11.8211 32.2324 12.4375C32.2464 12.4431 32.2632 12.4403 32.2744 12.4319C31.8653 10.5015 31.078 8.7055 29.9909 7.10565C27.3852 6.2567 22.8126 5.18359 16.2983 5.18359Z" fill="url(#paint1_radial)"/>
<path d="M4.72656 26.4141C7.6797 29.2467 11.7732 31.0007 16.2981 31.0007C20.8231 31.0007 24.9166 29.2467 27.8697 26.4141C25.1687 27.0949 21.3106 27.7281 16.2981 27.7281C11.2857 27.7281 7.42753 27.0949 4.72656 26.4141Z" fill="url(#paint2_radial)"/>
<path d="M4.72656 4.58594C7.6797 1.75328 11.7732 -0.000665245 16.2981 -0.00066564C20.8231 -0.000666036 24.9166 1.75328 27.8697 4.58594C25.1687 3.90509 21.3106 3.27188 16.2981 3.27188C11.2857 3.27188 7.42753 3.90509 4.72656 4.58594Z" fill="url(#paint3_radial)"/>
<path d="M16.2983 25.7764C9.78406 25.7764 5.20866 24.7033 2.60576 23.8543C1.51865 22.2573 0.731333 20.4585 0.322266 18.5281C0.333473 18.5196 0.350284 18.5168 0.364293 18.5224C1.69516 19.1388 7.04106 21.3047 16.2983 21.3047C25.5556 21.3047 30.9015 19.1388 32.2324 18.5224C32.2464 18.5168 32.2632 18.5196 32.2744 18.5281C31.8653 20.4585 31.078 22.2545 29.9909 23.8543C27.3852 24.7061 22.8126 25.7764 16.2983 25.7764Z" fill="url(#paint4_radial)"/>
<defs>
<radialGradient id="paint0_radial" cx="0" cy="0" r="1" gradientUnits="userSpaceOnUse" gradientTransform="translate(-9.24605 11.7672) rotate(11.0664) scale(45.2505)">
<stop stop-color="#FEAE6F"/>
<stop offset="0.3156" stop-color="#FF9B73"/>
<stop offset="0.6313" stop-color="#D66F8D"/>
<stop offset="0.8553" stop-color="#8E54A5"/>
<stop offset="0.9909" stop-color="#6050B0"/>
</radialGradient>
<radialGradient id="paint1_radial" cx="0" cy="0" r="1" gradientUnits="userSpaceOnUse" gradientTransform="translate(2.66179 10.2269) rotate(9.14384) scale(41.4333 25.0568)">
<stop offset="0.0206505" stop-color="#FEAE6F"/>
<stop offset="0.496525" stop-color="#D66F8D"/>
<stop offset="0.795468" stop-color="#8E54A5"/>
<stop offset="0.983598" stop-color="#7652AB"/>
</radialGradient>
<radialGradient id="paint2_radial" cx="0" cy="0" r="1" gradientUnits="userSpaceOnUse" gradientTransform="translate(10.4706 19.0462) scale(19.3845)">
<stop offset="0.0711" stop-color="#FF9B73"/>
<stop offset="0.2613" stop-color="#F4A575"/>
<stop offset="0.3683" stop-color="#EE977B"/>
<stop offset="0.5696" stop-color="#DF7389"/>
<stop offset="0.6072" stop-color="#DC6B8C"/>
<stop offset="0.6119" stop-color="#DA6B8D"/>
<stop offset="0.731" stop-color="#B06099"/>
<stop offset="0.8388" stop-color="#9259A2"/>
<stop offset="0.9307" stop-color="#8055A7"/>
<stop offset="0.9957" stop-color="#7953A9"/>
</radialGradient>
<radialGradient id="paint3_radial" cx="0" cy="0" r="1" gradientUnits="userSpaceOnUse" gradientTransform="translate(5.60355 10.5062) rotate(1.32452) scale(24.2423)">
<stop offset="0.109375" stop-color="#FEAE6F"/>
<stop offset="0.390625" stop-color="#FEAE6F"/>
<stop offset="0.640625" stop-color="#DF7389"/>
<stop offset="0.907479" stop-color="#B56398"/>
<stop offset="0.9957" stop-color="#7852AA"/>
</radialGradient>
<radialGradient id="paint4_radial" cx="0" cy="0" r="1" gradientUnits="userSpaceOnUse" gradientTransform="translate(-17.3713 18.4944) rotate(4.71153) scale(51.1663)">
<stop offset="0.0711" stop-color="#FF9B73"/>
<stop offset="0.390457" stop-color="#F4A575"/>
<stop offset="0.5892" stop-color="#DF7389"/>
<stop offset="0.64526" stop-color="#DC6B8C"/>
<stop offset="0.915" stop-color="#7953A9"/>
</radialGradient>
</defs>
</svg>

<svg width="165" height="31" fill="none" xmlns="http://www.w3.org/2000/svg"><path fill-rule="evenodd" clip-rule="evenodd" d="M58.199 12.105l.049.076 1.234-.63-.06-.094c-1.444-2.208-3.998-3.555-7.578-3.555-2.839 0-5.11.792-6.672 2.204-1.563 1.413-2.407 3.44-2.407 5.885 0 2.446.844 4.472 2.402 5.885 1.556 1.412 3.817 2.204 6.634 2.204 3.622 0 6.177-1.346 7.62-3.555l.061-.093-1.235-.63-.049.076c-1.247 1.966-3.447 2.947-6.375 2.947-2.342 0-4.27-.61-5.611-1.763-1.34-1.152-2.105-2.856-2.105-5.07 0-2.216.766-3.92 2.105-5.071 1.342-1.154 3.27-1.763 5.61-1.763 2.928 0 5.108.98 6.377 2.947zM77.413 22.372H64.34V16.48h11.025v-1.255H64.34V9.588h12.855V8.356H63.022v15.273h14.39v-1.257zM94.48 22.372H82.574V8.355h-1.32v15.273h13.228v-1.256zM111.919 22.372h-13.07V16.48h11.025v-1.255H98.849V9.588h12.855V8.356H97.529v15.273h14.39v-1.257zM117.13 15.322c1.45.612 3.385.909 5.334 1.092 2.166.204 3.864.451 5.02.903.577.225 1.011.499 1.3.837.287.335.437.74.437 1.24 0 .978-.549 1.832-1.621 2.445-1.075.616-2.671.986-4.739.986-3.19 0-5.893-.92-7.72-2.939l-.07-.077-.962.937.066.072c1.983 2.158 5.136 3.262 8.643 3.262 2.478 0 4.41-.508 5.726-1.356 1.318-.85 2.019-2.043 2.019-3.395 0-.725-.2-1.33-.575-1.832-.374-.5-.918-.894-1.597-1.206-1.354-.625-3.27-.938-5.521-1.132-1.884-.172-3.601-.397-4.844-.837-1.247-.44-1.977-1.079-1.977-2.056 0-1.047.818-1.83 2.036-2.352 1.215-.52 2.794-.767 4.237-.756 2.656.021 4.906.706 6.388 2.293l.064.07 1.04-.863-.077-.077c-1.595-1.617-4.163-2.679-7.457-2.679-1.949 0-3.84.384-5.247 1.12-1.406.737-2.346 1.836-2.346 3.265 0 1.48.991 2.422 2.443 3.035zM147.675 9.567l.001-1.212H131.65v1.212h7.342v14.06h1.319V9.568h7.364zM165 22.372h-12.97V16.48h11.024v-1.255H152.03V9.588h12.754V8.356H150.71v15.273H165v-1.257z" fill="#432D89"/><path d="M16.298 19.352c10.35 0 15.82-2.71 16.245-2.93.014-.01.02-.023.026-.037.016-.292.027-.586.027-.883 0-.297-.01-.591-.027-.883-.003-.014-.009-.03-.026-.036-.426-.221-5.895-2.93-16.245-2.93C5.948 11.652.48 14.358.053 14.58c-.014.009-.02.023-.025.037-.017.294-.028.585-.028.882 0 .297.011.591.028.883.003.014.008.03.025.036.426.222 5.895 2.934 16.245 2.934z" fill="url(#paint0_radial)"/><path d="M16.298 5.184c-6.514 0-11.09 1.073-13.692 1.922a14.977 14.977 0 00-2.284 5.326.045.045 0 00.042.005c1.331-.616 6.677-2.782 15.934-2.782 9.258 0 14.604 2.166 15.934 2.783.014.005.031.002.042-.006a15 15 0 00-2.283-5.326c-2.606-.85-7.178-1.922-13.693-1.922z" fill="url(#paint1_radial)"/><path d="M4.727 26.414c2.953 2.833 7.046 4.587 11.571 4.587 4.525 0 8.619-1.754 11.572-4.587-2.701.68-6.56 1.314-11.572 1.314s-8.87-.633-11.571-1.314z" fill="url(#paint2_radial)"/><path d="M4.727 4.586C7.68 1.753 11.773-.001 16.298-.001c4.525 0 8.619 1.754 11.572 4.587-2.701-.68-6.56-1.314-11.572-1.314s-8.87.633-11.571 1.314z" fill="url(#paint3_radial)"/><path d="M16.298 25.776c-6.514 0-11.09-1.073-13.692-1.922a14.977 14.977 0 01-2.284-5.326.044.044 0 01.042-.006c1.331.617 6.677 2.783 15.934 2.783 9.258 0 14.604-2.166 15.934-2.783a.044.044 0 01.042.006 14.999 14.999 0 01-2.283 5.326c-2.606.852-7.178 1.922-13.693 1.922z" fill="url(#paint4_radial)"/><defs><radialGradient id="paint0_radial" cx="0" cy="0" r="1" gradientUnits="userSpaceOnUse" gradientTransform="rotate(11.066 -65.358 -41.838) scale(45.2505)"><stop stop-color="#FEAE6F"/><stop offset=".316" stop-color="#FF9B73"/><stop offset=".631" stop-color="#D66F8D"/><stop offset=".855" stop-color="#8E54A5"/><stop offset=".991" stop-color="#6050B0"/></radialGradient><radialGradient id="paint1_radial" cx="0" cy="0" r="1" gradientUnits="userSpaceOnUse" gradientTransform="rotate(9.144 -62.615 21.757) scale(41.4333 25.0568)"><stop offset=".021" stop-color="#FEAE6F"/><stop offset=".497" stop-color="#D66F8D"/><stop offset=".795" stop-color="#8E54A5"/><stop offset=".984" stop-color="#7652AB"/></radialGradient><radialGradient id="paint2_radial" cx="0" cy="0" r="1" gradientUnits="userSpaceOnUse" gradientTransform="translate(10.47 19.046) scale(19.3845)"><stop offset=".071" stop-color="#FF9B73"/><stop offset=".261" stop-color="#F4A575"/><stop offset=".368" stop-color="#EE977B"/><stop offset=".57" stop-color="#DF7389"/><stop offset=".607" stop-color="#DC6B8C"/><stop offset=".612" stop-color="#DA6B8D"/><stop offset=".731" stop-color="#B06099"/><stop offset=".839" stop-color="#9259A2"/><stop offset=".931" stop-color="#8055A7"/><stop offset=".996" stop-color="#7953A9"/></radialGradient><radialGradient id="paint3_radial" cx="0" cy="0" r="1" gradientUnits="userSpaceOnUse" gradientTransform="rotate(1.325 -451.653 247.64) scale(24.2423)"><stop offset=".109" stop-color="#FEAE6F"/><stop offset=".391" stop-color="#FEAE6F"/><stop offset=".641" stop-color="#DF7389"/><stop offset=".907" stop-color="#B56398"/><stop offset=".996" stop-color="#7852AA"/></radialGradient><radialGradient id="paint4_radial" cx="0" cy="0" r="1" gradientUnits="userSpaceOnUse" gradientTransform="rotate(4.712 -233.465 -201.882) scale(51.1663)"><stop offset=".071" stop-color="#FF9B73"/><stop offset=".39" stop-color="#F4A575"/><stop offset=".589" stop-color="#DF7389"/><stop offset=".645" stop-color="#DC6B8C"/><stop offset=".915" stop-color="#7953A9"/></radialGradient></defs></svg>
